X: 1243
T: An Dro Moyland
R: reel
M: 4/4
K: Eminor
|:EB BA/B/|cB AF/G/|AF BA/G/|F/G/E/F/ GF|
EB BA/B/|cB AF/G/|AF BA/G/|F/E/F/G/ E2:|
|:EE FG/F/|EE F>G|AF BA/G/|F/G/E/F/ GF|
EE FG/F/|EE F>G|AF BA/G/|F/E/F/G/ E2:|
|:EB B>A|GE E2|AG FE|D/E/F GF|
EB B>A|GE E2|AG FE|D/E/F/D/ E2:|
|:E/F/G/F/ E/F/G/F/|E/F/G/A/ BB|D/E/F/E/ D>E|FA GF/G/|
E/F/G/F/ E/F/G/F/|E/F/G/A/ BB|D/E/F/G/ F>A|GF E2:|

